admin/src/theme/img/safetyequipment/questionmark.svg

<svg width="32" height="32" viewBox="0 0 32 32" xmlns="http://www.w3.org/2000/svg">
  <g fill="none" fill-rule="evenodd">
    <path d="M0 0h32v32H0z"/>
    <path d="M14.7466667 23.8533333H12.2v-.72c0-.4.1733333-.84.5333333-1.2933333.28-.36.7333334-.6666667 1.3733334-.9066667.6133333-.2266666 1.24-.3466666 1.9066666-.3466666.6666667 0 1.2933334.12 1.9066667.3466666.6133333.2533334 1.08.56 1.4133333.9066667.3333334.4533333.4933334.8933333.4933334 1.2933333 0 .8666667-.5466667 1.6133334-1.64 2.24-.6133334.36-.92.84-.92 1.4533334V28.2H14.76v-1.2533333C14.76 26.56 14.84 26.2 14.9866667 25.84c.1466666-.3333333.3466666-.6.5733333-.8.1733333-.1733333.3866667-.3466667.6533333-.4933333C16.92 24.2666667 17.28 23.8 17.28 23.1333333c0-.2533333-.0533333-.4666666-.1466667-.6533333-.1333333-.1733333-.28-.3333333-.4533333-.4533333-.2266667-.1333334-.44-.1866667-.6533333-.1866667-.2266667 0-.44.0666667-.6533334.1866667-.2133333.12-.36.28-.4533333.4533333-.1066667.1733333-.1466667.4-.1466667.6533333v.72h-.0266666Zm1.2533333 5.6c.2 0 .4133333.0666667.6533333.1866667.1733334.1333333.3333334.28.4533334.4533333.1066666.1733334.1466666.3866667.1466666.6533334 0 .28-.0533333.4933333-.1466666.6533333-.1333334.2-.28.36-.4533334.4533333C16.48 31.96 16.2666667 32 16 32c-.28 0-.4933333-.0533333-.6533333-.1466667-.2-.1066666-.36-.2533333-.4533334-.4533333-.1066666-.1466667-.1466666-.3733333-.1466666-.6533333 0-.2533334.0533333-.4666667.1466666-.6533334C15 29.92 15.1466667 29.76 15.3466667 29.64S15.76 29.4533333 16 29.4533333Z" fill="#EC0E0E" fill-rule="nonzero"/>
  </g>
</svg>

<?xml version="1.0" encoding="UTF-8"?>
<svg width="32px" height="32px" viewBox="0 0 32 32" version="1.1" xmlns="http://www.w3.org/2000/svg" xmlns:xlink="http://www.w3.org/1999/xlink">
    <title>5CD74F7C-21BF-41CD-BA4B-777059E2D03B</title>
    <g id="Squat-laskuri" stroke="none" stroke-width="1" fill="none" fill-rule="evenodd">
        <g id="colors_and_typography" transform="translate(-1198.000000, -1098.000000)">
            <g id="turvalaite_ikonit" transform="translate(718.000000, 906.000000)">
                <g id="Asset-60" transform="translate(480.000000, 192.000000)">
                    <rect id="Rectangle" x="0" y="0" width="32" height="32"></rect>
                    <path d="M14.7466667,23.8533333 L12.2,23.8533333 L12.2,23.1333333 C12.2,22.7333333 12.3733333,22.2933333 12.7333333,21.84 C13.0133333,21.48 13.4666667,21.1733333 14.1066667,20.9333333 C14.72,20.7066667 15.3466667,20.5866667 16.0133333,20.5866667 C16.68,20.5866667 17.3066667,20.7066667 17.92,20.9333333 C18.5333333,21.1866667 19,21.4933333 19.3333333,21.84 C19.6666667,22.2933333 19.8266667,22.7333333 19.8266667,23.1333333 C19.8266667,24 19.28,24.7466667 18.1866667,25.3733333 C17.5733333,25.7333333 17.2666667,26.2133333 17.2666667,26.8266667 L17.2666667,28.2 L14.76,28.2 L14.76,26.9466667 C14.76,26.56 14.84,26.2 14.9866667,25.84 C15.1333333,25.5066667 15.3333333,25.24 15.56,25.04 C15.7333333,24.8666667 15.9466667,24.6933333 16.2133333,24.5466667 C16.92,24.2666667 17.28,23.8 17.28,23.1333333 C17.28,22.88 17.2266667,22.6666667 17.1333333,22.48 C17,22.3066667 16.8533333,22.1466667 16.68,22.0266667 C16.4533333,21.8933333 16.24,21.84 16.0266667,21.84 C15.8,21.84 15.5866667,21.9066667 15.3733333,22.0266667 C15.16,22.1466667 15.0133333,22.3066667 14.92,22.48 C14.8133333,22.6533333 14.7733333,22.88 14.7733333,23.1333333 L14.7733333,23.8533333 L14.7466667,23.8533333 Z M16,29.4533333 C16.2,29.4533333 16.4133333,29.52 16.6533333,29.64 C16.8266667,29.7733333 16.9866667,29.92 17.1066667,30.0933333 C17.2133333,30.2666667 17.2533333,30.48 17.2533333,30.7466667 C17.2533333,31.0266667 17.2,31.24 17.1066667,31.4 C16.9733333,31.6 16.8266667,31.76 16.6533333,31.8533333 C16.48,31.96 16.2666667,32 16,32 C15.72,32 15.5066667,31.9466667 15.3466667,31.8533333 C15.1466667,31.7466667 14.9866667,31.6 14.8933333,31.4 C14.7866667,31.2533333 14.7466667,31.0266667 14.7466667,30.7466667 C14.7466667,30.4933333 14.8,30.28 14.8933333,30.0933333 C15,29.92 15.1466667,29.76 15.3466667,29.64 C15.5466667,29.52 15.76,29.4533333 16,29.4533333 Z" id="Shape" fill="#EC0E0E" fill-rule="nonzero"></path>
                </g>
            </g>
        </g>
    </g>
</svg>
